actions/scalable/xsi-shutdown-symbolic.svg

<?xml version="1.0" encoding="UTF-8" standalone="no"?>
<svg
   xml:space="preserve"
   width="32"
   height="32"
   version="1.1"
   id="svg2"
   sodipodi:docname="xsi-shutdown-symbolic.svg"
   inkscape:version="1.4.3 (0d15f75042, 2025-12-25)"
   xmlns:inkscape="http://www.inkscape.org/namespaces/inkscape"
   xmlns:sodipodi="http://sodipodi.sourceforge.net/DTD/sodipodi-0.dtd"
   xmlns="http://www.w3.org/2000/svg"
   xmlns:svg="http://www.w3.org/2000/svg"><defs
     id="defs2" /><sodipodi:namedview
     id="namedview2"
     pagecolor="#505050"
     bordercolor="#ffffff"
     borderopacity="1"
     inkscape:showpageshadow="0"
     inkscape:pageopacity="0"
     inkscape:pagecheckerboard="1"
     inkscape:deskcolor="#505050"
     inkscape:zoom="11.313709"
     inkscape:cx="11.092738"
     inkscape:cy="3.6239222"
     inkscape:window-width="1920"
     inkscape:window-height="998"
     inkscape:window-x="0"
     inkscape:window-y="0"
     inkscape:window-maximized="1"
     inkscape:current-layer="svg2" /><path
     fill="#d6dbf1"
     d="m 16.024081,12.657521 c 1.159277,0 2.099752,-0.928958 2.099752,-2.072881 V 2.0384406 c 0,-1.14392379 -0.940475,-2.07288179 -2.099752,-2.07288179 -1.159279,0 -2.099753,0.928958 -2.099753,2.07288179 V 10.58464 c 0,1.143923 0.940474,2.072881 2.099753,2.072881 m 8.0209,-9.3740323 C 23.214989,2.8012986 22.15162,3.0748347 21.657329,3.897676 21.167574,4.7193847 21.447993,5.783071 22.279192,6.2565386 25.87027,8.3524529 28.223374,12.064448 28.227212,16.49235 28.213778,23.154363 22.762865,28.545775 16.024081,28.55729 9.2852957,28.545775 3.8324654,23.154363 3.8209492,16.49235 3.824788,12.064448 6.1778926,8.3524529 9.7708872,6.2565386 10.60196,5.7747855 10.878344,4.7191515 10.390834,3.897676 9.9033214,3.0762008 8.8361712,2.8017357 8.0050993,3.285408 V 3.283488 C 3.412131,5.9398498 0.32967902,10.814962 0.33543715,16.490433 c 0,8.569831 6.71191415,15.513985 15.69056285,15.513985 8.892278,0 15.688644,-6.944154 15.690563,-15.513985 C 31.722285,10.81304 28.63603,5.9379305 24.046901,3.2834901 Z"
     id="path2"
     style="stroke-width:1.91934"
     sodipodi:nodetypes="csssssccccccccscccsccc" /></svg>

<svg xmlns="http://www.w3.org/2000/svg" width="32" height="32" xmlns:v="https://vecta.io/nano"><path fill="#d6dbf1" d="M16.024 12.658c1.159 0 2.1-.929 2.1-2.073V2.038c0-1.144-.94-2.073-2.1-2.073s-2.1.929-2.1 2.073v8.546c0 1.144.94 2.073 2.1 2.073m8.021-9.374c-.83-.482-1.893-.209-2.388.614a1.71 1.71 0 0 0 .622 2.359c3.591 2.096 5.944 5.808 5.948 10.236-.013 6.662-5.464 12.053-12.203 12.065-6.739-.012-12.192-5.403-12.203-12.065.004-4.428 2.357-8.14 5.95-10.236a1.71 1.71 0 0 0 .62-2.359c-.488-.821-1.555-1.096-2.386-.612v-.002C3.412 5.94.33 10.815.335 16.49c0 8.57 6.712 15.514 15.691 15.514 8.892 0 15.689-6.944 15.691-15.514.006-5.677-3.081-10.553-7.67-13.207z"/></svg>
